X:1
T:Siciliano
T:Siciliano
T:Henry Purcell
C:Henry Purcell
%%score 1 2
L:1/8
Q:3/8=72
M:6/8
K:Gmin
V:1 treble 
V:2 bass 
V:1
 A | MB2 G d2 A | MB2 G A/B/cA | B>ed MB>AG | [B,DG]3- [B,DG]2 :: g |{^f} g2 d =e/f/gd | %7
{=ef} e2 c d/e/fc | d>gf Md>cB | [DFB]3- [DFB]2 D | =E/^F/GD E2 G | A/B/cA d2 B | c/d/ec MB>AG | %13
 [B,DG]3- [B,DG]2 :| %14
V:2
 D, | [G,,G,]3 z2 D, | [G,,G,]3 z2 D, | [G,,G,]3 z2 D, | [G,,G,]3 z2 :: G, | [D,D]3 z2 G, | %7
 [C,C]3 z2 F, | [B,,B,]3 z2 F, | [B,,B,]3 z2 B,, | G,,3 z2 C, | A,,3 z2 G, | C,3 z2 D, | %13
 [G,,,G,,]3 z2 :| %14

